X:1
T:Title
%%score { ( 1 3 ) | ( 2 4 ) }
L:1/8
M:6/8
K:G
V:1 treble nm="Grand Piano"
V:3 treble 
V:2 treble 
V:4 treble 
V:1
 z3 z2[Q:1/4=104] d | d2 B z A[DGB] | [CEA]2 [CEG] [G,CE]2 [G,CG] | z3 .G3 | %4
[M:5/8] [DFA]-[DFA]- [DFA]3 |[M:1/8] [Fd] |[M:3/4] d2 .B2 A[DGB] | [CEA]2 [CEG] [G,CE]2 [G,CE] | %8
 [G,B,D][DG] [DGB] [DFB]2 [CFA] |[M:5/8] [G,B,G]-[G,B,G]- [G,B,G]3 |[M:1/8] d |[M:3/4] d6 | d6 | %13
 B6 |[M:5/8] B-B- B3 |[M:1/8] d |[M:3/4] d2 dd BG | [GB]2 [GB] [FB]2 [DA] | G6- |[M:5/8] G-G- G3 |] %20
V:2
 z3 z2 [G,B,G] | [G,B,G]2 [G,DG] B,C[K:bass]G, | C,2 C, C,2 E, | G,2 G, B,,A,,G,, | %4
[M:5/8] D,-D,- D,3 |[M:1/8] [D,A,] |[M:3/4][K:treble] [G,B,G]2 [G,DG]B, CG, | C,2 C, C,2 C, | %8
 z B, D, D,2 D, |[M:5/8] G,,-G,,- G,,3 |[M:1/8] z |[M:3/4] z2[K:treble] [G,B,] [G,B,]2 [G,CG] | %12
 [G,B,G]2 [G,B,] .[G,B,]3 | z2 [G,D] [G,D]2 [G,EG] |[M:5/8] [G,DG]2 [G,D] [G,D]2 |[M:1/8] [G,B,G] | %16
[M:3/4] [G,B,G]2 [G,B,G] [G,B,G]2[K:bass] [G,B,] | [D,D]2 [D,D] [D,D]2 [D,C] | [G,,G,]3 [G,,G,]3 | %19
[M:5/8] G,3 z2 |] %20
V:3
 x6 | z3 .G3 | x6 | [B,D]2 [B,G] [G,D]-[G,DA][DGB] |[M:5/8] x5 |[M:1/8] x |[M:3/4] z2 z .G3 | x6 | %8
 x6 |[M:5/8] x5 |[M:1/8] x |[M:3/4] z2 G G2 e | z2 G G2 B | z2 G G2 c |[M:5/8] z2 G G2 |[M:1/8] x | %16
[M:3/4] x6 | x6 | [B,D]3 [CE]3 |[M:5/8] [B,D]-[B,D]- [B,D]3 |] %20
V:4
 x6 | z3 .G,3[K:bass] | x6 | x6 |[M:5/8] x5 |[M:1/8] x |[M:3/4][K:treble] z2 z .G,3 | x6 | %8
 D,2 z2 z2 |[M:5/8] x5 |[M:1/8] x |[M:3/4] x2[K:treble] x4 | x6 | x6 |[M:5/8] x5 |[M:1/8] x | %16
[M:3/4] x5[K:bass] x | x6 | x6 |[M:5/8] G,,-G,,- G,,3 |] %20

